X: 5495
T: Bunny's Hat, The
R: reel
M: 4/4
K: Bminor
|:FABA cBAF|Bcde fedB|FABF A3F|E F3 A B3|
FABA cBAF|Bcde fedB|FABd c A3|faec dBBA:|
|:FA (3Bcd e f3|e f3 edcA|FA (3Bcd e f3|edcd A B3|
FA (3Bcd e f3|aefa bafe|d B3 cAce|faec dBBA:|

